icon/fa/ruler-combined.svg

<svg xmlns="http://www.w3.org/2000/svg" viewBox="0 0 512 512"><!--! Font Awesome Free 6.1.2 by @fontawesome - https://fontawesome.com License - https://fontawesome.com/license/free (Icons: CC BY 4.0, Fonts: SIL OFL 1.1, Code: MIT License) Copyright 2022 Fonticons, Inc.--><path d="M0 464V48C0 21.49 21.49 0 48 0h96c26.5 0 48 21.49 48 48v48h-80c-8.8 0-16 7.2-16 16s7.2 16 16 16h80v64h-80c-8.8 0-16 7.2-16 16s7.2 16 16 16h80v64h-80c-8.8 0-16 7.2-16 16s7.2 16 16 16h80v80c0 8.8 7.2 16 16 16s16-7.2 16-16v-80h64v80c0 8.8 7.2 16 16 16s16-7.2 16-16v-80h64v80c0 8.8 7.2 16 16 16s16-7.2 16-16v-80h48c26.5 0 48 21.5 48 48v96c0 26.5-21.5 48-48 48H48C23.15 512 2.706 493.1.248 468.9.084 467.3 0 465.7 0 464z"/></svg>

<svg xmlns="http://www.w3.org/2000/svg" viewBox="0 0 512 512" height="1em" width="1em">
<!--! Font Awesome Free 6.1.2 by @fontawesome - https://fontawesome.com License - https://fontawesome.com/license/free (Icons: CC BY 4.0, Fonts: SIL OFL 1.1, Code: MIT License) Copyright 2022 Fonticons, Inc.-->
  <path d="M0 464V48C0 21.49 21.49 0 48 0H144C170.5 0 192 21.49 192 48V96H112C103.2 96 96 103.2 96 112C96 120.8 103.2 128 112 128H192V192H112C103.2 192 96 199.2 96 208C96 216.8 103.2 224 112 224H192V288H112C103.2 288 96 295.2 96 304C96 312.8 103.2 320 112 320H192V400C192 408.8 199.2 416 208 416C216.8 416 224 408.8 224 400V320H288V400C288 408.8 295.2 416 304 416C312.8 416 320 408.8 320 400V320H384V400C384 408.8 391.2 416 400 416C408.8 416 416 408.8 416 400V320H464C490.5 320 512 341.5 512 368V464C512 490.5 490.5 512 464 512H48C23.15 512 2.706 493.1 .2477 468.9C.0838 467.3 0 465.7 0 464z"/>
</svg>
